brandFactory_export/1.Light/Luna_1Light.svg

<?xml version="1.0" encoding="UTF-8"?>
<svg width="24px" height="24px" viewBox="0 0 24 24" version="1.1" xmlns="http://www.w3.org/2000/svg" xmlns:xlink="http://www.w3.org/1999/xlink">
    <title>1.Light/Luna_1Light</title>
    <g id="Symbols" stroke="none" stroke-width="1" fill="none" fill-rule="evenodd">
        <g id="1.Light/Luna_1Light" fill="#5CB615" fill-rule="nonzero">
            <path d="M13.3764706,22.6016807 C13.0705882,22.6117647 12.697479,22.6117647 12.3613445,22.6117647 C9.93445378,22.5714286 2.02184874,21.6705882 2.02184874,11.7781513 C2.02184874,1.90588235 9.87394958,1.04201681 12.2739496,1.01176471 L13.0302521,1.01848739 C10.7344538,2.13781513 8.34453782,4.51428571 8.34453782,9.55630252 C8.34453782,18.5579832 16.0016807,19.1361345 17.5445378,19.1596639 C17.8336134,19.1596639 18.1428571,19.1596639 18.3882353,19.1495798 C19.1680672,19.1294118 20.502521,19.0151261 21.9210084,18.5042017 C19.3798319,22.1915966 14.8319328,22.5747899 13.3764706,22.6016807 M23.4705882,17.0386555 C23.3092437,16.8907563 23.0705882,16.8638655 22.8789916,16.9714286 C21.1647059,17.9428571 19.3193277,18.1243697 18.3613445,18.1478992 C18.1193277,18.1579832 17.8235294,18.1579832 17.5546218,18.1579832 C15.6319328,18.1277311 9.35630252,17.4151261 9.35630252,9.55630252 C9.35630252,3.75798319 12.7042017,1.82521008 15.5142857,1.22689076 C15.7495798,1.17647059 15.9176471,0.968067227 15.9142857,0.729411765 C15.9109244,0.490756303 15.7361345,0.285714286 15.5008403,0.242016807 C14.7882353,0.11092437 14.0689076,0.0336134454 13.3462185,0.0168067227 L12.2705882,0.00672268908 C9.62857143,0.0403361345 1.01344538,0.98487395 1.01344538,11.7747899 C1.01344538,13.7176471 1.55798319,23.4285714 12.3512605,23.610084 C12.707563,23.610084 13.0907563,23.610084 13.4,23.6 C15.1546218,23.5697479 21.0672269,23.0521008 23.5882353,17.6134454 C23.6823529,17.4184874 23.6319328,17.1831933 23.4705882,17.0386555" id="Luna_1Light"></path>
        </g>
    </g>
</svg>

<svg width="24" height="24" viewBox="0 0 24 24" xmlns="http://www.w3.org/2000/svg"><path d="M13.376 22.602c-.305.01-.679.01-1.015.01-2.427-.04-10.34-.941-10.34-10.834 0-9.872 7.853-10.736 10.253-10.766l.756.006c-2.296 1.12-4.685 3.496-4.685 8.538 0 9.002 7.657 9.58 9.2 9.604.289 0 .598 0 .843-.01.78-.02 2.115-.135 3.533-.646-2.541 3.688-7.09 4.07-8.545 4.098m10.095-5.563a.508.508 0 00-.592-.068c-1.714.972-3.56 1.153-4.518 1.177-.242.01-.537.01-.806.01-1.923-.03-8.199-.743-8.199-8.602 0-5.798 3.348-7.73 6.158-8.33a.504.504 0 00.4-.497.506.506 0 00-.413-.487 13.659 13.659 0 00-2.155-.225l-1.075-.01C9.629.04 1.013.985 1.013 11.775c0 1.943.545 11.654 11.338 11.835.357 0 .74 0 1.049-.01 1.755-.03 7.667-.548 10.188-5.987a.49.49 0 00-.117-.574" fill="#5CB615" fill-rule="nonzero"/></svg>
